svg/wallet_bifold_outline.svg

<svg xmlns="http://www.w3.org/2000/svg" viewBox="0 0 24 24"><path d="M15.5 15.5c.83 0 1.5-.67 1.5-1.5s-.67-1.5-1.5-1.5-1.5.67-1.5 1.5.67 1.5 1.5 1.5M7 3h10a2 2 0 0 1 2 2v2a2 2 0 0 1 2 2v10c0 1.11-.89 2-2 2H7c-2.21 0-4-1.79-4-4V7c0-2.21 1.79-4 4-4m10 4V5H7c-1.1 0-2 .9-2 2v.54A4 4 0 0 1 7 7zM5 17a2 2 0 0 0 2 2h12V9H7c-1.1 0-2 .9-2 2z"/></svg>

<svg xmlns="http://www.w3.org/2000/svg" id="mdi-wallet-bifold-outline" viewBox="0 0 24 24"><path d="M15.5 15.5C16.33 15.5 17 14.83 17 14C17 13.17 16.33 12.5 15.5 12.5C14.67 12.5 14 13.17 14 14C14 14.83 14.67 15.5 15.5 15.5M7 3H17C18.11 3 19 3.9 19 5V7C20.11 7 21 7.9 21 9V19C21 20.11 20.11 21 19 21H7C4.79 21 3 19.21 3 17V7C3 4.79 4.79 3 7 3M17 7V5H7C5.9 5 5 5.9 5 7V7.54C5.59 7.2 6.27 7 7 7H17M5 17C5 18.11 5.9 19 7 19H19V9H7C5.9 9 5 9.9 5 11V17Z" /></svg>
